X: 18
T:Lasses of Solohod (#198), The
M:9/8
L:1/8
S:Rice-Walsh manuscript
K:G
d|c2 A A2 G F2 D|D2 G G2 A B2 d|c2 A A2 G F2 D|EFG A2 F G2:|
|:c|Bce d2 B c2 A|Bce d2 B c2 d|1Bce d2 B c2 A|B2 G G2 A B2:|
2efg d2 B c2 A|B2 G G2 A B2:||
%
% The above is a variant of "The Rakes of Solohod", No. 454 in
% O'Neill's Dance Music of Ireland.

